svg/clip.svg

<svg width="24" height="24" viewBox="0 0 24 24" xmlns="http://www.w3.org/2000/svg"><title>4F97F478-CC3A-4734-833A-C02D7878E238</title><path d="M17.6568542,5.84314575 C19.4156217,7.60191316 19.4472486,10.4167124 17.7275649,12.1363961 L11.787868,18.0760931 C10.5377032,19.3262579 8.48953624,19.3032447 7.21095862,18.0246671 C5.93238099,16.7460895 5.90936788,14.6979226 7.15953267,13.4477578 L11.9678588,8.63943166 C12.7485047,7.85878577 14.0300393,7.87318504 14.8284271,8.67157288 C15.626815,9.46996071 15.6412142,10.7514953 14.8605683,11.5321412 L10.6179277,15.7747819 L9.46084383,14.6176981 L13.7543962,10.3241457 C14.0655232,10.0130187 13.4869813,9.43447681 13.1758543,9.74560379 L8.31661649,14.6048416 C7.69436253,15.2270956 7.70593337,16.2569002 8.34232947,16.8932963 C8.97872557,17.5296924 10.0085302,17.5412632 10.6307841,16.9190092 L16.5704811,10.9793123 C17.662254,9.88753941 17.6420693,8.09110249 16.5254834,6.9745166 C15.4088975,5.85793071 13.6124606,5.83774603 12.5206877,6.9295189 L7.14667618,12.3035304 L5.98959236,11.1464466 L11.3636039,5.77243507 C13.0832876,4.05275138 15.8980868,4.08437834 17.6568542,5.84314575 L17.6568542,5.84314575 L17.6568542,5.84314575 Z" fill-rule="evenodd"/></svg>

<svg width="24" height="24" viewBox="0 0 24 24" xmlns="http://www.w3.org/2000/svg"><path d="M17.657 5.843c1.759 1.759 1.79 4.574.07 6.293l-5.94 5.94c-1.25 1.25-3.297 1.227-4.576-.051-1.279-1.279-1.302-3.327-.051-4.577l4.808-4.809c.78-.78 2.062-.766 2.86.033.799.798.813 2.08.033 2.86l-4.243 4.243-1.157-1.157 4.293-4.294c.312-.311-.267-.89-.578-.578l-4.86 4.859c-.622.622-.61 1.652.026 2.288.637.637 1.667.648 2.289.026l5.94-5.94c1.091-1.091 1.071-2.888-.046-4.004-1.116-1.117-2.913-1.137-4.004-.045l-5.374 5.374-1.157-1.158 5.374-5.374c1.72-1.72 4.534-1.688 6.293.071z" fill-rule="evenodd"/></svg>
